packages/icons/src/assets/apps-list.svg

<svg width="16" height="16" viewBox="0 0 16 16" fill="none" xmlns="http://www.w3.org/2000/svg">
<path d="M11.9376 3.93882V6.75597H13.1391V3.93882H15.7923V2.71962H13.1391V0H11.9376V2.71962H9.1402L9.1402 3.93882H11.9376Z" fill="#000E19"/>
<path fill-rule="evenodd" clip-rule="evenodd" d="M7.97301 3.09613L6.78682 2.38881L0.80362 5.92054C0.00915424 6.38949 0.00915282 7.53248 0.803619 8.00144L2.32448 8.89916L0.803614 9.80605C0.00914789 10.2798 0.00914647 11.4344 0.803612 11.9082L7.37819 15.8286C7.76148 16.0571 8.23855 16.0571 8.62184 15.8286L15.1964 11.9082C15.9909 11.4344 15.9909 10.2798 15.1964 9.80605L13.6756 8.89916L15.7456 7.68212L14.5573 6.97244L14.5557 6.97213L8.00002 10.8418L1.42545 6.96099L7.97301 3.09613ZM3.52277 9.60648L1.42544 10.8571L8.00002 14.7775L14.5746 10.8571L12.4773 9.60649L8.62185 11.8822C8.23855 12.1085 7.76149 12.1085 7.37819 11.8822L3.52277 9.60648Z" fill="#000E19"/>
</svg>

<svg xmlns="http://www.w3.org/2000/svg" width="16" height="16" viewBox="0 0 16 16"><path d="M11.938 3.939v2.817h1.201V3.939h2.653v-1.22H13.14V0h-1.201v2.72H9.14v1.219h2.798Z"/><path fill-rule="evenodd" d="M7.973 3.096 6.787 2.39.804 5.92a1.206 1.206 0 0 0 0 2.08l1.52.898-1.52.907a1.225 1.225 0 0 0 0 2.102l6.574 3.92c.383.23.86.23 1.244 0l6.574-3.92a1.225 1.225 0 0 0 0-2.102l-1.52-.907 2.07-1.217-1.189-.71h-.001L8 10.842 1.425 6.96l6.548-3.865Zm-4.45 6.51-2.098 1.251L8 14.777l6.575-3.92-2.098-1.25-3.855 2.275c-.383.226-.86.226-1.244 0L3.523 9.606Z"/></svg>
